packages/icons/svg/Fill/phone.svg

<svg fill="none" height="24" viewBox="0 0 24 24" width="24" xmlns="http://www.w3.org/2000/svg"><path clip-rule="evenodd" d="m17.3999 22c-8.49204 0-15.40004-6.908-15.40004-15.4 0-2.537 2.064-4.6 4.6-4.6.26 0 .517.022.766.065.243.039.488.101.725.183.326.113.57.386.647.722l1.37004 5.964c.075.328-.02.672-.25304.916-.137.142-.14.145-1.38.794 1.004 2.174 2.74904 3.913 4.88004 4.883.649-1.241.653-1.245.795-1.381.245-.234.59-.325.917-.253l5.964 1.369c.335.077.608.321.721.646.082.236.143.48.184.731.042.247.064.503.064.761 0 2.537-2.063 4.6-4.6 4.6" fill="#6b7280" fill-rule="evenodd"/></svg>

<svg width="24" height="24" viewBox="0 0 24 24" fill="none" xmlns="http://www.w3.org/2000/svg">
<g id="Icon/Fill/phone">
<path id="Mask" fill-rule="evenodd" clip-rule="evenodd" d="M17.4 22C8.908 22 2 15.092 2 6.6C2 4.063 4.064 2 6.6 2C6.86 2 7.117 2.022 7.366 2.065C7.609 2.104 7.854 2.166 8.091 2.248C8.417 2.361 8.661 2.634 8.738 2.97L10.108 8.934C10.183 9.262 10.088 9.606 9.855 9.85C9.718 9.992 9.715 9.995 8.475 10.644C9.479 12.818 11.224 14.557 13.355 15.527C14.004 14.286 14.008 14.282 14.15 14.146C14.395 13.912 14.74 13.821 15.067 13.893L21.031 15.262C21.366 15.339 21.639 15.583 21.752 15.908C21.834 16.144 21.895 16.388 21.936 16.639C21.978 16.886 22 17.142 22 17.4C22 19.937 19.937 22 17.4 22Z" fill="#000000"/>
</g>
</svg>
